X:171
%%titlespace -15
%%composerspace -15
T:Crummock Water
C:Chris Dewhurst
M:3/4
L:1/4
K:C
G | "C"e3/d/c | "E7"B c d | "F"c3/B/A | "C"G E "G"D | "Am"C3/C/C | c d e | "D7"ed3/A/ | "G"d2 G | 
"C"e3/d/c | "E7"B c d | "F"c3/B/A | "C"G E "G"D | "Am"C3/C/C | c d e | "D7"d A "G7"B | "C"c2 ||
c/d/ | "E" e3/e/e | d c B | "Am"B A3/E/ | A2 B/c/ | "D7"d3/d/d | c B A | "G"G G3/A/ | B2 G | 
"C"e3/d/c | "E7"B c d | "F"c3/B/A | "C"G E "G"D | "Am"C3/C/C | c d e | "D7"d A "G7"B | "C"c2 |]

